X: 8
T:Raspberry Jam And Porridge
M:6/8
L:1/8
C:Charles Jemmett
R:Jig
K:G
D|"G"G3 GAB|DED DEF|G2A BAG|"D"Add "D7"d2c|
"G"BAG GAB|DED "G7"DE=F|"C"E2C C2E|"D"FED "G"G2:|
B/2c/2|"G"d>GG GAG|d>GG GAB|"D"A>DD DED|A>DD DEF|
"G"G>DD "D"A>DD|"G"B>DD "C"c2=F|E2C C2E|"D"FED"G"G2 B/2c/2|
"G"d>GG GAG|d>GG GAB|"D"A>DD DED|A>DD DEF|
"G"G>BB "D"A>cc|"G"Bcd "C"e2=F|E2C C2E|"D"FED "G"G2|
